icons/1_Primary/AllMyLinks.svg

<svg xmlns="http://www.w3.org/2000/svg" width="1024" height="1024" fill="none">
   <g clip-path="url(#a)">
      <path fill="#FF837D" d="M512 1024c282.77 0 512-229.23 512-512S794.77 0 512 0 0 229.23 0 512s229.23 512 512 512Z"/>
      <path fill="#fff" d="M746.67 523.709 640 337.679a147.84 147.84 0 0 0-128-73.39 149.336 149.336 0 0 0-128 72.32l-107.95 187.1a147.195 147.195 0 0 0-20.05 74.24 149.245 149.245 0 0 0 20.048 74.752 149.245 149.245 0 0 0 54.792 54.658l-.17.3a149.32 149.32 0 0 0 74.67 20.05h1.49a152.527 152.527 0 0 0 105-44.64A149.307 149.307 0 0 0 617 747.709h1.92a149.324 149.324 0 0 0 105.508-43.904A149.327 149.327 0 0 0 768 598.159a147.41 147.41 0 0 0-21.33-74.45Zm-128 138.67a64 64 0 0 1-55.89-32l-14.29-24.75a42.638 42.638 0 0 0-76.6 5.85l-11.08 18.9a64 64 0 0 1-55.47 32c-1.76 0-3.5-.12-5.23-.26-.91-.08-1.83-.17-2.74-.28-.52-.06-1-.16-1.55-.24a63.989 63.989 0 0 1-22.48-8v.08a63.754 63.754 0 0 1-31.411-63.544 63.76 63.76 0 0 1 7.991-23.576l106.61-183.65 1.07-1.71a63.997 63.997 0 0 1 54.4-31.57 62.518 62.518 0 0 1 55.47 31.57l106.66 185.39a63.892 63.892 0 0 1-23.496 87.28 63.894 63.894 0 0 1-31.974 8.51h.01Zm-64-167a42.669 42.669 0 0 1-72.856 30.118 42.665 42.665 0 0 1-9.232-46.496 42.67 42.67 0 0 1 82.088 16.328v.05Z"/>
   </g>
   <defs>
      <clipPath id="a">
         <path fill="#fff" d="M0 0h1024v1024H0z"/>
      </clipPath>
   </defs>
</svg>

<svg width="1024" height="1024" viewBox="0 0 1024 1024" fill="none" xmlns="http://www.w3.org/2000/svg">
<g clip-path="url(#clip0_2_1470)">
<path d="M512 1024C794.77 1024 1024 794.77 1024 512C1024 229.23 794.77 0 512 0C229.23 0 0 229.23 0 512C0 794.77 229.23 1024 512 1024Z" fill="#FF837D"/>
<path d="M746.67 523.709L640 337.679C626.96 315.308 608.273 296.754 585.81 283.875C563.346 270.995 537.894 264.241 512 264.289C486.239 264.279 460.913 270.934 438.484 283.606C416.055 296.278 397.285 314.538 384 336.609L276.05 523.709C262.906 546.242 255.987 571.863 256 597.949C255.993 624.196 262.909 649.98 276.048 672.701C289.188 695.421 308.088 714.275 330.84 727.359L330.67 727.659C353.368 740.782 379.121 747.697 405.34 747.709H406.83C446.287 746.973 483.923 730.972 511.83 703.069C539.582 731.304 577.412 747.361 617 747.709H618.92C658.52 747.643 696.471 731.851 724.428 703.805C752.386 675.76 768.058 637.759 768 598.159C767.653 571.885 760.288 546.181 746.67 523.709ZM618.67 662.379C607.357 662.461 596.225 659.543 586.407 653.922C576.589 648.3 568.436 640.177 562.78 630.379L548.49 605.629C544.466 598.687 538.565 593.021 531.465 589.283C524.364 585.545 516.354 583.886 508.353 584.497C500.352 585.108 492.686 587.964 486.236 592.737C479.786 597.51 474.813 604.007 471.89 611.479L460.81 630.379C455.189 640.115 447.103 648.198 437.365 653.816C427.628 659.434 416.582 662.387 405.34 662.379C403.58 662.379 401.84 662.259 400.11 662.119C399.2 662.039 398.28 661.949 397.37 661.839C396.85 661.779 396.37 661.679 395.82 661.599C387.891 660.365 380.266 657.652 373.34 653.599V653.679C366.079 649.5 359.713 643.93 354.605 637.288C349.498 630.647 345.75 623.064 343.575 614.973C341.4 606.882 340.841 598.442 341.929 590.135C343.018 581.828 345.733 573.816 349.92 566.559L456.53 382.909L457.6 381.199C463.183 371.699 471.124 363.801 480.654 358.271C490.185 352.74 500.982 349.763 512 349.629C523.229 349.423 534.307 352.246 544.068 357.801C553.829 363.357 561.913 371.439 567.47 381.199L674.13 566.589C679.732 576.311 682.676 587.336 682.664 598.557C682.652 609.777 679.685 620.796 674.063 630.506C668.44 640.216 660.359 648.274 650.634 653.869C640.908 659.464 629.88 662.399 618.66 662.379H618.67ZM554.67 495.379C554.662 503.817 552.153 512.063 547.459 519.075C542.766 526.086 536.099 531.549 528.301 534.773C520.504 537.996 511.926 538.835 503.651 537.185C495.376 535.534 487.777 531.466 481.814 525.497C475.85 519.528 471.79 511.925 470.147 503.649C468.504 495.373 469.351 486.796 472.582 479.001C475.813 471.206 481.282 464.545 488.298 459.858C495.314 455.171 503.562 452.669 512 452.669C523.315 452.669 534.167 457.164 542.169 465.164C550.171 473.164 554.667 484.014 554.67 495.329V495.379Z" fill="white"/>
</g>
<defs>
<clipPath id="clip0_2_1470">
<rect width="1024" height="1024" fill="white"/>
</clipPath>
</defs>
</svg>
